X: 38401
T: Star Of Munster, The
R: reel
M: 4/4
K: Bminor
|:d2 Bd cBAc|BAFG AFEA|FBBA Bcde|f2 bf af e2|
d2 Bd cBAc|BAFG AFEA|FBBA Bcde|1 f2 ec B3c:|2 f2 ec B3a||
|:b3c' bafa|bac'a bafg|a3b afef|a2 bf afea|
b3c' bafa|bac'a bafg|a4 b4|c'3 b af e2:|

